ERK
CUT[LOTT IST TODT]
REG[Europa, Mitteleuropa, Deutschland, Thueringen; Sachsen]
TRD[]
FKT[]
SIG[E1032]
KEY[E1032   08  G 2/4]
MEL[351_  351_
    46+16  655_
    351_  351_
    234-7  211_ //]
BEM[]
MEL_SEM[3 -7 4 3 -7 5 4 3 -3 0 -2 0 -3 3 -7 4 3 -7 2 2 1 -6 3 -2 0]
MEL_RAW[351  351
    46+16  655
    351  351
    234-7  211]
NO_REP[351351
    46+165
    351351
    234-721]
RTM[xxx_  xxx_
    xxxx  xxx_
    xxx_  xxx_
    xxxx  xxx_]
SCL_DEG[-7123456+1]
SCL_SEM[1 2 2 1 2 2 3]

